X: 181742
T: Railroad
T: B\'othar Iarainn
S: B.Breathnach:"Ceol Rince na hEireann" IV/129
Z: B.Black
L: 1/8
M: 4/4
R: reel
K: A
A2 cA (3FAF (3EFG|A2 cA (3Bcd cB|A2 cA (3FAF E2|\
ec (3Bcd cABG|
A2 cA (3FAF (3EFG|A2 cA (3Bcd cB|A2 cA (3FAF E2|\
ec (3Bcd cA A2 ||
eA (3cBA eAAc|eAce fg (3agf|eA (3cBA eAAc|dBcA BA F2|
eA (3cBA eAAc|eAce f2 fg|afge fdec|dBcA BA F2 ||
